SVG/mercury.svg

<?xml version="1.0" encoding="utf-8"?>
<!-- Generated by IcoMoon.io -->
<!DOCTYPE svg PUBLIC "-//W3C//DTD SVG 1.1//EN" "http://www.w3.org/Graphics/SVG/1.1/DTD/svg11.dtd">
<svg version="1.1" xmlns="http://www.w3.org/2000/svg" xmlns:xlink="http://www.w3.org/1999/xlink" width="9" height="14" viewBox="0 0 9 14">
<path fill="#444444" d="M6.484 2.469q1.133 0.563 1.824 1.645t0.691 2.387q0 1.727-1.152 3.004t-2.848 1.465v1.031h0.75q0.109 0 0.18 0.070t0.070 0.18v0.5q0 0.109-0.070 0.18t-0.18 0.070h-0.75v0.75q0 0.109-0.070 0.18t-0.18 0.070h-0.5q-0.109 0-0.18-0.070t-0.070-0.18v-0.75h-0.75q-0.109 0-0.18-0.070t-0.070-0.18v-0.5q0-0.109 0.070-0.18t0.18-0.070h0.75v-1.031q-1.695-0.187-2.848-1.465t-1.152-3.004q0-1.305 0.691-2.387t1.824-1.645q-1.289-0.75-1.781-2.133-0.047-0.125 0.027-0.23t0.207-0.105h0.539q0.164 0 0.227 0.156 0.344 0.828 1.094 1.336t1.672 0.508 1.672-0.508 1.094-1.336q0.062-0.156 0.289-0.156h0.477q0.133 0 0.207 0.105t0.027 0.23q-0.492 1.383-1.781 2.133zM4.5 10q1.445 0 2.473-1.027t1.027-2.473-1.027-2.473-2.473-1.027-2.473 1.027-1.027 2.473 1.027 2.473 2.473 1.027z"></path>
</svg>

<svg xmlns="http://www.w3.org/2000/svg" viewBox="0 0 9 14"><path d="M6.484 2.47q1.133.562 1.824 1.644t.69 2.387Q9 8.23 7.85 9.506t-2.85 1.465V12h.75q.11 0 .18.07t.07.18v.5q0 .11-.07.18t-.18.07H5v.75q0 .11-.07.18t-.18.07h-.5q-.108 0-.18-.07T4 13.75V13h-.75q-.108 0-.18-.07T3 12.75v-.5q0-.108.07-.18t.18-.07H4v-1.03q-1.694-.187-2.847-1.465T0 6.5q0-1.304.69-2.386T2.514 2.47Q1.224 1.72.734.335.685.21.76.106T.967 0h.54q.163 0 .226.157.344.828 1.094 1.336T4.5 2t1.67-.507T7.266.157Q7.327 0 7.555 0h.476q.134 0 .208.106t.027.23Q7.773 1.72 6.485 2.47zM4.5 10q1.445 0 2.473-1.027T8 6.5 6.973 4.027 4.5 3 2.027 4.027 1 6.5t1.027 2.473T4.5 10z" /></svg>
